!! 00000] TT[WS
!!!OTL: Da hudie
!!!ARE: Asia, China, Shanxi Linxian
!! Ethnic Group: Han
!! WI, 237 (1)
!!!SCT: J0282
!!!YEM: Copyright 1995, estate of Helmut Schaffrath.
**kern
*ICvox
*Ivox
!! Mixed meters:  2/4; 3/4
*M2/4
*k[f#c#]
*D:
{8r
8a
8a
16a
16b
=1
8.dd
16b
4dd
=2
8ff#
8aa
8ff#
8ee
=3
8.ff#
16ee
8dd
8dd}
=4
{8r
8ee
8cc#
8b
=5
8b
8f#
8.a
16b
=6
*M3/4
8.ff#
16cc#
16b
16cc#
16b
16a
4f#
=7
*M2/4
8.ff#
16ee
16dd
16ee
16cc#
16b}
=8
{8a
16b
16a
4f#
=9
8a
8dd
8b
8a
=10
4ff#
8b
8dd
=11
8a
16b
16a
4f#}
=12
{8.ff#
16aa
8dd
16cc#
16b
=13
8a
16b
16a
4f#
=14
8ff#
8aa
16dd
16ee
16cc#
16b
=15
8a
16b
16a
4f#}
=16
*M3/4
{8.a
16b
8a
8b
8dd
8dd
=17
*M2/4
8r
8dd
8ff#
16ff#
16ee
=18
8dd
8ff#
8cc#
8ee}
=19
{8cc#
8ee
8cc#
8ee
=20
8ee
8cc#
8b
8dd
=21
16ff#
16ff#
16ff#
16a
8ee
16dd
16cc#
=22
16b
16b
16b
16f#
2a}
==
!!!AGN: Xiaodiao. Qingge, Sichun
!!!ONB: ESAC (Essen Associative Code) Database: CHINA
!!!AMT: irregular
!!!AIN: vox
!!!EED: Helmut Schaffrath
!!!EEV: 1.0
*-
